build/img/sprite/icon-clock.svg

<svg id="clock" width="35" height="35" viewBox="0 0 35 35" fill="currentColor" xmlns="http://www.w3.org/2000/svg">
<g id="Group 420">
<path id="Vector" d="M0 16.4769C0.0903582 15.8027 0.147427 15.1226 0.27583 14.4568C1.33992 8.91497 4.35741 4.77494 9.29144 2.05931C12.0652 0.53266 15.0756 -0.162893 18.2322 0.0320999C24.7998 0.437542 29.7207 3.55624 32.9344 9.29306C34.4812 12.0551 35.1624 15.0751 34.9674 18.2318C34.5608 24.8128 31.4328 29.734 25.6831 32.9538C23.5514 34.1475 21.2306 34.7777 18.7874 34.9441C18.6982 34.9501 18.6114 34.981 18.5234 35H16.4725C16.3846 34.981 16.2978 34.9501 16.2086 34.9441C13.7677 34.7777 11.4553 34.1356 9.31522 32.9573C4.3693 30.2369 1.34348 26.0981 0.27583 20.5468C0.147427 19.8809 0.0903582 19.2008 0 18.5267C0 17.843 0 17.1594 0 16.4757V16.4769ZM33.4777 17.4994C33.473 8.69144 26.3121 1.53021 17.5022 1.5207C8.70411 1.51119 1.53847 8.66885 1.51588 17.4887C1.49448 26.2895 8.7053 33.5031 17.5081 33.4841C26.3252 33.4662 33.4825 26.3014 33.4777 17.4994Z" fill="currentColor"/>
<path id="Vector_2" d="M16.742 13.8789C16.742 12.7053 16.736 11.533 16.7444 10.3595C16.7491 9.74716 17.2437 9.37382 17.7645 9.57714C18.114 9.71387 18.2543 9.99803 18.2543 10.3607C18.2543 11.0895 18.2543 11.8184 18.2543 12.5472C18.2543 13.9942 18.2591 15.44 18.2495 16.887C18.2484 17.1105 18.3161 17.2651 18.4731 17.422C21.0388 19.9783 23.5985 22.5406 26.1595 25.1016C26.6552 25.5975 26.7147 26.0112 26.3449 26.3679C25.9835 26.7163 25.5864 26.6545 25.1025 26.1705C22.4524 23.5215 19.8058 20.8689 17.1498 18.2246C16.8644 17.9404 16.7265 17.6349 16.7337 17.227C16.7515 16.1106 16.7396 14.9941 16.7396 13.8789H16.742Z" fill="currentColor"/>
<path id="Vector_3" d="M18.2544 4.7773C18.2521 5.33256 18.0012 5.66072 17.5553 5.68925C17.4995 5.69282 17.4424 5.68925 17.3865 5.68212C16.9312 5.62386 16.7112 5.26122 16.7421 4.62155C16.7647 4.15309 17.0417 3.84396 17.4567 3.82374C17.9596 3.79877 18.2568 4.15428 18.2544 4.7773Z" fill="currentColor"/>
<path id="Vector_4" d="M4.7342 18.2592C4.19443 18.2568 3.86985 18.019 3.82586 17.5921C3.79257 17.2664 3.9079 16.9929 4.20275 16.8573C4.58796 16.6802 4.99695 16.6635 5.37265 16.8966C5.65324 17.0702 5.73171 17.3508 5.67226 17.667C5.59855 18.0606 5.27516 18.2627 4.73539 18.2603L4.7342 18.2592Z" fill="currentColor"/>
<path id="Vector_5" d="M30.2564 16.7455C30.8235 16.7479 31.1648 17.0166 31.1766 17.4755C31.185 17.7728 31.0673 18.0237 30.7998 18.1461C30.4134 18.3233 30.0067 18.3399 29.6299 18.1116C29.3612 17.9487 29.2756 17.6836 29.3195 17.3769C29.3802 16.9595 29.7036 16.7431 30.2576 16.7455H30.2564Z" fill="currentColor"/>
<path id="Vector_6" d="M18.2536 30.2638C18.2512 30.8298 17.9801 31.1699 17.52 31.1806C17.2228 31.1877 16.9731 31.0688 16.8519 30.8001C16.6771 30.4137 16.6592 30.0058 16.8899 29.6301C17.054 29.3626 17.3191 29.2782 17.6258 29.3246C18.0408 29.3864 18.256 29.7098 18.2536 30.265V30.2638Z" fill="currentColor"/>
<path id="Vector_7" d="M9.38927 8.80306C9.29415 8.91483 9.16337 9.18354 8.95174 9.28579C8.76389 9.37615 8.46191 9.34286 8.2586 9.25369C8.05648 9.16451 7.89122 8.95525 7.75212 8.76739C7.53692 8.47847 7.5928 8.09205 7.84842 7.84118C8.10523 7.5903 8.4845 7.54631 8.77816 7.76033C9.08253 7.98267 9.37143 8.22641 9.38927 8.80306Z" fill="currentColor"/>
<path id="Vector_8" d="M26.1836 9.38338C26.0825 9.29777 25.8138 9.16579 25.7116 8.95534C25.6212 8.76749 25.6545 8.4643 25.7449 8.26217C25.834 8.06004 26.0445 7.89596 26.2311 7.75566C26.4939 7.55948 26.784 7.57613 27.0503 7.77112C27.3107 7.96136 27.426 8.2158 27.3487 8.54158C27.2548 8.94227 26.7174 9.39527 26.1836 9.38576V9.38338Z" fill="currentColor"/>
<path id="Vector_9" d="M9.38325 26.3551C9.3892 26.7927 8.7983 27.3907 8.36434 27.3872C7.98389 27.3836 7.62245 27.0245 7.61532 26.644C7.607 26.2101 8.19908 25.6168 8.64017 25.6191C9.03608 25.6203 9.37968 25.9604 9.38444 26.3563L9.38325 26.3551Z" fill="currentColor"/>
</g>
</svg>

<svg width="35" height="35" fill="currentColor" xmlns="http://www.w3.org/2000/svg"><path d="M0 16.477c.09-.674.147-1.354.276-2.02C1.34 8.915 4.357 4.775 9.29 2.059 12.065.533 15.076-.163 18.232.032 24.8.438 29.721 3.556 32.934 9.293c1.547 2.762 2.228 5.782 2.033 8.939-.406 6.58-3.534 11.502-9.284 14.722-2.132 1.194-4.452 1.824-6.896 1.99-.089.006-.176.037-.264.056h-2.05c-.088-.019-.175-.05-.264-.056-2.441-.166-4.754-.808-6.894-1.987-4.946-2.72-7.972-6.859-9.04-12.41C.148 19.88.09 19.2 0 18.527v-2.051Zm33.478 1.022C33.473 8.691 26.312 1.53 17.502 1.521 8.704 1.51 1.538 8.669 1.516 17.489c-.022 8.8 7.19 16.014 15.992 15.995 8.817-.018 15.975-7.183 15.97-15.985Z"/><path d="M16.742 13.879c0-1.174-.006-2.346.002-3.52.005-.612.5-.985 1.02-.782.35.137.49.421.49.784v2.186c0 1.447.005 2.893-.005 4.34a.685.685 0 0 0 .224.535c2.566 2.556 5.126 5.119 7.687 7.68.495.495.555.91.185 1.266-.361.348-.759.287-1.242-.197-2.65-2.65-5.297-5.302-7.953-7.946-.286-.285-.423-.59-.416-.998.017-1.116.006-2.233.006-3.348h.002ZM18.254 4.777c-.002.556-.253.884-.699.912a.892.892 0 0 1-.168-.007c-.456-.058-.676-.42-.645-1.06.023-.469.3-.778.715-.798.503-.025.8.33.797.953ZM4.734 18.26c-.54-.003-.864-.241-.908-.668-.033-.326.082-.6.377-.735.385-.177.794-.194 1.17.04.28.173.359.454.3.77-.074.394-.398.596-.938.593ZM30.256 16.745c.567.003.909.272.92.73.009.298-.109.549-.376.671-.387.177-.793.194-1.17-.034-.269-.163-.354-.428-.31-.735.06-.418.384-.634.938-.631h-.002ZM18.254 30.264c-.003.566-.274.906-.734.917-.297.007-.547-.112-.668-.38-.175-.387-.193-.795.038-1.17.164-.268.43-.353.736-.306.415.061.63.385.628.94v-.001ZM9.39 8.803c-.096.112-.227.38-.438.483-.188.09-.49.057-.693-.032-.203-.09-.368-.299-.507-.487-.215-.289-.16-.675.096-.926.257-.25.637-.295.93-.08.305.222.593.465.611 1.042ZM26.184 9.383c-.102-.085-.37-.217-.472-.428-.09-.188-.058-.49.033-.693.089-.202.3-.366.486-.506.263-.197.553-.18.82.015.26.19.375.445.298.77-.094.401-.632.854-1.165.845v-.003ZM9.383 26.355c.006.438-.585 1.036-1.019 1.032-.38-.003-.742-.363-.749-.743-.008-.434.584-1.027 1.025-1.025.396.001.74.341.744.737Z"/></svg>
